X:6913
%13814
T:Quick Step 10th Regt.
M:12/8
K:Am
d3 de^f gfe dcB| d3 def AFA c2A|\
d3 de^f gfe dcB| cac BgB AFA c2A||
dBG GAG dBG ABc| dBG GAG AFA c2A|\
dBG GAG g^fe dcB| cec BdB AFA c2A:|


Failed to open file ./transposed2/temp.abc
